Dominus_Dark_Funeral/scalable/apps/wayland.svg

<?xml version="1.0" encoding="UTF-8" standalone="no"?><svg xmlns:dc="http://purl.org/dc/elements/1.1/" xmlns:cc="http://creativecommons.org/ns#" xmlns:rdf="http://www.w3.org/1999/02/22-rdf-syntax-ns#" xmlns="http://www.w3.org/2000/svg" xmlns:xlink="http://www.w3.org/1999/xlink" width="48" height="48" viewBox="0 0 12.7 12.7"><metadata><rdf:RDF><cc:Work><dc:format>image/svg+xml</dc:format><dc:type rdf:resource="http://purl.org/dc/dcmitype/StillImage"/><dc:title/></cc:Work></rdf:RDF></metadata><defs><linearGradient id="d"><stop offset="0" stop-color="maroon"/><stop offset="1" stop-color="maroon" stop-opacity="0"/></linearGradient><linearGradient id="c"><stop offset="0" stop-color="maroon"/><stop offset="1" stop-color="maroon" stop-opacity="0"/></linearGradient><linearGradient id="b" y1="13" x1="13" y2="41.5" x2="43.09" gradientUnits="userSpaceOnUse" gradientTransform="translate(74.25 -1.9) scale(.70829)" xlink:href="#a"><stop stop-color="#050000"/><stop offset="1" stop-color="#0b0000" stop-opacity="0"/></linearGradient><linearGradient gradientTransform="matrix(1.25 0 0 1.26667 -92.14 -151.08)" gradientUnits="userSpaceOnUse" x2="386.57" y2="540.75" x1="390.57" y1="535.36" id="a"><stop stop-color="#fdbc4b"/><stop stop-color="#dde341" offset="1"/></linearGradient><radialGradient xlink:href="#c" id="f" cx="4.42" cy="6.72" fx="4.42" fy="6.72" r="5.35" gradientTransform="matrix(2.57937 0 0 1.57333 -6.98 -4.55)" gradientUnits="userSpaceOnUse"/><radialGradient xlink:href="#d" id="e" cx="7.81" cy="8.64" fx="7.81" fy="8.64" r="1.71" gradientTransform="matrix(-.00254 -5.83197 7.2477 -.00316 -54.43 54.23)" gradientUnits="userSpaceOnUse"/></defs><path d="M6.35.1C4.81.1 3.57.39 2.66.97A3.67 3.67 0 0 0 1 4.22c0 1.91 1.54 4.47 2.01 5.2.54.85 1.13 1.61 1.65 2.16.68.7 1.21 1.03 1.69 1.03s1.01-.33 1.69-1.03a15.2 15.2 0 0 0 1.65-2.15c.47-.74 2-3.3 2-5.21 0-1.42-.57-2.54-1.65-3.25A6.75 6.75 0 0 0 6.35.09z" fill="#e9c6af"/><path d="M8.01 11.6a6.32 6.32 0 0 1-.16-.77 11.66 11.66 0 0 1-.72-2.15c0-.28-.04-.57-.11-.86-.08-.3-.2-.62-.35-.94a4.32 4.32 0 0 1-.16-1.03l-.2-.04c-.27.45-.46.86-.6 1.22-.13.36-.2.67-.21.93-.13.3-.25.68-.34 1.1.31.1.46.2.46.28v.07c-.23-.04-.41-.1-.5-.21-.1.25-.24.9-.41 2l-.11.29.06.08c.68.7 1.21 1.03 1.69 1.03.47 0 1-.33 1.66-1zM6.43 8.43h.04v.08l-.33.2-.04-.06v-.08zM6.3 9.68h.04l.13.14-.04.04h-.05l-.08-.12z" fill="url(#e)"/><path d="M6.82.07a6.75 6.75 0 0 0-.47.01v.01c-1.54 0-2.78.29-3.69.87A3.67 3.67 0 0 0 1 4.06 3.67 3.67 0 0 1 1 3.7a3.67 3.67 0 0 1 .05-.36 3.67 3.67 0 0 1 .1-.36 3.67 3.67 0 0 1 .11-.34 3.67 3.67 0 0 1 .16-.33 3.67 3.67 0 0 1 .2-.32 3.67 3.67 0 0 1 .21-.29 3.67 3.67 0 0 1 .25-.27 3.67 3.67 0 0 1 .27-.24 3.67 3.67 0 0 1 .18-.13 4.75 4.75 0 0 1 .12.21 4.75 4.75 0 0 1 .2.43 4.75 4.75 0 0 1 .15.45h.38v.1h-.3v.1c.13.42.21.63.26.63h.08l.2-.06.07.06.04-.06.04.06v.04a.84.84 0 0 0-.31.43h-.02v.1h.06a12.94 12.94 0 0 0 .07.87 12.94 12.94 0 0 0 .2 1.28 12.94 12.94 0 0 0 .33 1.25l.17.14h.08c.05 0 .14-.13.26-.4s.28-.66.46-1.2a8.06 8.06 0 0 0 .22-.47 8.06 8.06 0 0 0 .28-.76l-.04-.15c.11-.17.23-.3.35-.39a.64.64 0 0 1 .37-.12h.08a.3.3 0 0 1 .2.06c.06.05.1.12.13.23.21.3.38.72.52 1.34l.62 1.39a.52.52 0 0 1 .01.01.52.52 0 0 1 .03.04.52.52 0 0 1 .03.05.52.52 0 0 1 .02.04.52.52 0 0 1 .02.05.52.52 0 0 1 0 .05.52.52 0 0 1 .01.06.52.52 0 0 1 0 .05 3.3 3.3 0 0 0 .1.2 3.3 3.3 0 0 0 .15.3 3.3 3.3 0 0 0 .19.28 3.3 3.3 0 0 0 .2.25h.13c.08 0 .18-.16.28-.5.1-.32.23-.81.36-1.46.04 0 .17-.35.37-1.06v-.04L9 4.84l-.17.06h-.2v-.1l.43-.04h.83c.3-1.16.62-2.07.89-2.7 0-.17.03-.24.04-.4a3.43 3.43 0 0 1 .77 1.55c.07.32.1.65.11 1 0-1.42-.57-2.54-1.65-3.25A6.75 6.75 0 0 0 6.82.07zm.83 2.43l.04.04v.04l-.09.1h-.04l-.08-.1v-.04zm1.55.04h.04v.04l-.09.1h-.04v-.03zm-.7.69l.16.12c-.04.1-.13.14-.25.14l-.08-.14c0-.04.04-.08.16-.12zm1 .62l.03.04v.04l-.02.06h-.1v-.06zm-1.6.47v.04l-.21.2h-.13v-.05c0-.09.13-.15.33-.19z" fill="url(#f)"/><path d="M6.35.1C4.81.1 3.57.39 2.66.97A3.67 3.67 0 0 0 1 4.22c0 1.91 1.54 4.47 2.01 5.2.54.85 1.13 1.61 1.65 2.16.68.7 1.21 1.03 1.69 1.03s1.01-.33 1.69-1.03a15.2 15.2 0 0 0 1.65-2.15c.47-.74 2-3.3 2-5.21 0-1.42-.57-2.54-1.65-3.25A6.75 6.75 0 0 0 6.35.09zm0 .03C6.91.15 7.44.2 7.9.31a5.82 5.82 0 0 1 1.6.66 3.65 3.65 0 0 1 1.24 1.36c.14.27.25.57.32.88a4.61 4.61 0 0 1-.14 2.53c-.15.52-.36 1.04-.58 1.52-.44.97-.95 1.8-1.18 2.17a15.2 15.2 0 0 1-1.65 2.15 4.9 4.9 0 0 1-.92.78.96.96 0 0 1-.24.1.96.96 0 0 1-.24-.1 4.76 4.76 0 0 1-.92-.78 14.41 14.41 0 0 1-1.65-2.15 19.2 19.2 0 0 1-1.18-2.17c-.22-.48-.43-1-.58-1.52a4.6 4.6 0 0 1-.14-2.52 3.73 3.73 0 0 1 .84-1.64 3.65 3.65 0 0 1 1.45-1A6.83 6.83 0 0 1 6.35.13z" opacity=".35"/></svg>

<?xml version="1.0" encoding="UTF-8" standalone="no"?>
<svg
   xmlns:dc="http://purl.org/dc/elements/1.1/"
   xmlns:cc="http://creativecommons.org/ns#"
   xmlns:rdf="http://www.w3.org/1999/02/22-rdf-syntax-ns#"
   xmlns:svg="http://www.w3.org/2000/svg"
   xmlns="http://www.w3.org/2000/svg"
   xmlns:xlink="http://www.w3.org/1999/xlink"
   xmlns:sodipodi="http://sodipodi.sourceforge.net/DTD/sodipodi-0.dtd"
   xmlns:inkscape="http://www.inkscape.org/namespaces/inkscape"
   width="48"
   height="48"
   viewBox="0 0 12.7 12.7"
   version="1.1"
   id="svg36"
   sodipodi:docname="wayland.svg"
   inkscape:version="0.92.4 (5da689c313, 2019-01-14)">
  <sodipodi:namedview
     pagecolor="#ffffff"
     bordercolor="#666666"
     borderopacity="1"
     objecttolerance="10"
     gridtolerance="10"
     guidetolerance="10"
     inkscape:pageopacity="0"
     inkscape:pageshadow="2"
     inkscape:window-width="1112"
     inkscape:window-height="480"
     id="namedview38"
     showgrid="false"
     inkscape:zoom="4.9166667"
     inkscape:cx="2.1355932"
     inkscape:cy="24"
     inkscape:window-x="0"
     inkscape:window-y="25"
     inkscape:window-maximized="0"
     inkscape:current-layer="svg36" />
  <metadata
     id="metadata2">
    <rdf:RDF>
      <cc:Work>
        <dc:format>image/svg+xml</dc:format>
        <dc:type
           rdf:resource="http://purl.org/dc/dcmitype/StillImage" />
        <dc:title></dc:title>
      </cc:Work>
    </rdf:RDF>
  </metadata>
  <defs
     id="defs26">
    <linearGradient
       id="d">
      <stop
         offset="0"
         stop-color="maroon"
         id="stop4" />
      <stop
         offset="1"
         stop-color="maroon"
         stop-opacity="0"
         id="stop6" />
    </linearGradient>
    <linearGradient
       id="c">
      <stop
         offset="0"
         stop-color="maroon"
         id="stop9" />
      <stop
         offset="1"
         stop-color="maroon"
         stop-opacity="0"
         id="stop11" />
    </linearGradient>
    <linearGradient
       id="b"
       y1="13"
       x1="13"
       y2="41.5"
       x2="43.09"
       gradientUnits="userSpaceOnUse"
       gradientTransform="translate(74.25 -1.9) scale(.70829)"
       xlink:href="#a">
      <stop
         stop-color="#050000"
         id="stop14" />
      <stop
         offset="1"
         stop-color="#0b0000"
         stop-opacity="0"
         id="stop16" />
    </linearGradient>
    <linearGradient
       gradientTransform="matrix(1.25 0 0 1.26667 -92.14 -151.08)"
       gradientUnits="userSpaceOnUse"
       x2="386.57"
       y2="540.75"
       x1="390.57"
       y1="535.36"
       id="a">
      <stop
         stop-color="#fdbc4b"
         id="stop19" />
      <stop
         stop-color="#dde341"
         offset="1"
         id="stop21" />
    </linearGradient>
    <radialGradient
       xlink:href="#c"
       id="f"
       cx="4.42"
       cy="6.72"
       fx="4.42"
       fy="6.72"
       r="5.35"
       gradientTransform="matrix(2.57937,0,0,1.57333,-6.98,-4.55)"
       gradientUnits="userSpaceOnUse" />
    <radialGradient
       xlink:href="#d"
       id="e"
       cx="7.81"
       cy="8.64"
       fx="7.81"
       fy="8.64"
       r="1.71"
       gradientTransform="matrix(-0.00254,-5.83197,7.2477,-0.00316,-54.43,54.23)"
       gradientUnits="userSpaceOnUse" />
  </defs>
  <path
     d="M 6.35,0.1 C 4.81,0.1 3.57,0.39 2.66,0.97 A 3.67,3.67 0 0 0 1,4.22 c 0,1.91 1.54,4.47 2.01,5.2 0.54,0.85 1.13,1.61 1.65,2.16 0.68,0.7 1.21,1.03 1.69,1.03 0.48,0 1.01,-0.33 1.69,-1.03 A 15.2,15.2 0 0 0 9.69,9.43 c 0.47,-0.74 2,-3.3 2,-5.21 0,-1.42 -0.57,-2.54 -1.65,-3.25 A 6.75,6.75 0 0 0 6.35,0.09 Z"
     id="path28"
     inkscape:connector-curvature="0"
     style="fill:#e9c6af" />
  <path
     d="M 8.01,11.6 A 6.32,6.32 0 0 1 7.85,10.83 11.66,11.66 0 0 1 7.13,8.68 C 7.13,8.4 7.09,8.11 7.02,7.82 6.94,7.52 6.82,7.2 6.67,6.88 A 4.32,4.32 0 0 1 6.51,5.85 L 6.31,5.81 C 6.04,6.26 5.85,6.67 5.71,7.03 5.58,7.39 5.51,7.7 5.5,7.96 5.37,8.26 5.25,8.64 5.16,9.06 5.47,9.16 5.62,9.26 5.62,9.34 V 9.41 C 5.39,9.37 5.21,9.31 5.12,9.2 c -0.1,0.25 -0.24,0.9 -0.41,2 l -0.11,0.29 0.06,0.08 c 0.68,0.7 1.21,1.03 1.69,1.03 0.47,0 1,-0.33 1.66,-1 z M 6.43,8.43 H 6.47 V 8.51 L 6.14,8.71 6.1,8.65 V 8.57 Z M 6.3,9.68 H 6.34 L 6.47,9.82 6.43,9.86 H 6.38 L 6.3,9.74 Z"
     id="path30"
     style="fill:url(#e)"
     inkscape:connector-curvature="0" />
  <path
     d="M 6.82,0.07 A 6.75,6.75 0 0 0 6.35,0.08 V 0.09 C 4.81,0.09 3.57,0.38 2.66,0.96 A 3.67,3.67 0 0 0 1,4.06 3.67,3.67 0 0 1 1,3.7 3.67,3.67 0 0 1 1.05,3.34 3.67,3.67 0 0 1 1.15,2.98 3.67,3.67 0 0 1 1.26,2.64 3.67,3.67 0 0 1 1.42,2.31 3.67,3.67 0 0 1 1.62,1.99 3.67,3.67 0 0 1 1.83,1.7 3.67,3.67 0 0 1 2.08,1.43 3.67,3.67 0 0 1 2.35,1.19 3.67,3.67 0 0 1 2.53,1.06 4.75,4.75 0 0 1 2.65,1.27 4.75,4.75 0 0 1 2.85,1.7 4.75,4.75 0 0 1 3,2.15 h 0.38 v 0.1 h -0.3 v 0.1 C 3.21,2.77 3.29,2.98 3.34,2.98 H 3.42 L 3.62,2.92 3.69,2.98 3.73,2.92 3.77,2.98 V 3.02 A 0.84,0.84 0 0 0 3.46,3.45 H 3.44 v 0.1 H 3.5 A 12.94,12.94 0 0 0 3.57,4.42 12.94,12.94 0 0 0 3.77,5.7 12.94,12.94 0 0 0 4.1,6.95 L 4.27,7.09 H 4.35 C 4.4,7.09 4.49,6.96 4.61,6.69 4.73,6.42 4.89,6.03 5.07,5.49 A 8.06,8.06 0 0 0 5.29,5.02 8.06,8.06 0 0 0 5.57,4.26 L 5.53,4.11 C 5.64,3.94 5.76,3.81 5.88,3.72 A 0.64,0.64 0 0 1 6.25,3.6 h 0.08 a 0.3,0.3 0 0 1 0.2,0.06 c 0.06,0.05 0.1,0.12 0.13,0.23 0.21,0.3 0.38,0.72 0.52,1.34 L 7.8,6.62 a 0.52,0.52 0 0 1 0.01,0.01 0.52,0.52 0 0 1 0.03,0.04 0.52,0.52 0 0 1 0.03,0.05 0.52,0.52 0 0 1 0.02,0.04 0.52,0.52 0 0 1 0.02,0.05 0.52,0.52 0 0 1 0,0.05 0.52,0.52 0 0 1 0.01,0.06 0.52,0.52 0 0 1 0,0.05 3.3,3.3 0 0 0 0.1,0.2 3.3,3.3 0 0 0 0.15,0.3 A 3.3,3.3 0 0 0 8.36,7.75 3.3,3.3 0 0 0 8.56,8 H 8.69 C 8.77,8 8.87,7.84 8.97,7.5 9.07,7.18 9.2,6.69 9.33,6.04 9.37,6.04 9.5,5.69 9.7,4.98 V 4.94 L 9,4.84 8.83,4.9 H 8.63 V 4.8 L 9.06,4.76 h 0.83 c 0.3,-1.16 0.62,-2.07 0.89,-2.7 0,-0.17 0.03,-0.24 0.04,-0.4 a 3.43,3.43 0 0 1 0.77,1.55 c 0.07,0.32 0.1,0.65 0.11,1 0,-1.42 -0.57,-2.54 -1.65,-3.25 A 6.75,6.75 0 0 0 6.82,0.07 Z M 7.65,2.5 7.69,2.54 V 2.58 L 7.6,2.68 H 7.56 L 7.48,2.58 V 2.54 Z M 9.2,2.54 H 9.24 V 2.58 L 9.15,2.68 H 9.11 V 2.65 Z M 8.5,3.23 8.66,3.35 C 8.62,3.45 8.53,3.49 8.41,3.49 L 8.33,3.35 c 0,-0.04 0.04,-0.08 0.16,-0.12 z m 1,0.62 0.03,0.04 V 3.93 L 9.51,3.99 H 9.41 V 3.93 Z M 7.9,4.32 V 4.36 L 7.69,4.56 H 7.56 V 4.51 c 0,-0.09 0.13,-0.15 0.33,-0.19 z"
     id="path32"
     style="fill:url(#f)"
     inkscape:connector-curvature="0" />
  <path
     d="M 6.35,0.1 C 4.81,0.1 3.57,0.39 2.66,0.97 A 3.67,3.67 0 0 0 1,4.22 c 0,1.91 1.54,4.47 2.01,5.2 0.54,0.85 1.13,1.61 1.65,2.16 0.68,0.7 1.21,1.03 1.69,1.03 0.48,0 1.01,-0.33 1.69,-1.03 A 15.2,15.2 0 0 0 9.69,9.43 c 0.47,-0.74 2,-3.3 2,-5.21 0,-1.42 -0.57,-2.54 -1.65,-3.25 A 6.75,6.75 0 0 0 6.35,0.09 Z m 0,0.03 C 6.91,0.15 7.44,0.2 7.9,0.31 a 5.82,5.82 0 0 1 1.6,0.66 3.65,3.65 0 0 1 1.24,1.36 c 0.14,0.27 0.25,0.57 0.32,0.88 A 4.61,4.61 0 0 1 10.92,5.74 C 10.77,6.26 10.56,6.78 10.34,7.26 9.9,8.23 9.39,9.06 9.16,9.43 A 15.2,15.2 0 0 1 7.51,11.58 4.9,4.9 0 0 1 6.59,12.36 0.96,0.96 0 0 1 6.35,12.46 0.96,0.96 0 0 1 6.11,12.36 4.76,4.76 0 0 1 5.19,11.58 14.41,14.41 0 0 1 3.54,9.43 19.2,19.2 0 0 1 2.36,7.26 C 2.14,6.78 1.93,6.26 1.78,5.74 A 4.6,4.6 0 0 1 1.64,3.22 3.73,3.73 0 0 1 2.48,1.58 3.65,3.65 0 0 1 3.93,0.58 6.83,6.83 0 0 1 6.35,0.13 Z"
     id="path34"
     inkscape:connector-curvature="0"
     style="opacity:0.35" />
</svg>
